X:7537
T:Imelda Rolands
R:Reel
S:
H:
N:
D:Paddy Carty & Conor Tully(Session Tape) 
Z:Adrian Scahill
M:4/4
L:1/8
K:D
B2GA BedB|AD (3FED ADFA|GBEF GFGA|BABd egfe|\
d2ce dBAG|(3FED AD BFAF|GBEF GFGA|(3Bcd Ad BEE2:||\
Beed efga|bee2 bege|d3c defg|ad (3fed Adfd|\
e2(3fed edBc|dedB AGFA|GBEF GFGA|(3Bcd Ad BEE2:||\


